public/new/vuesaxoutlinesend.svg

<svg width="24" height="24" viewBox="0 0 24 24" fill="none" xmlns="http://www.w3.org/2000/svg">
<path d="M5.40995 21.75C4.28995 21.75 3.57995 21.37 3.12995 20.92C2.24995 20.04 1.62995 18.17 3.60995 14.2L4.47995 12.47C4.58995 12.24 4.58995 11.76 4.47995 11.53L3.60995 9.80002C1.61995 5.83002 2.24995 3.95002 3.12995 3.08002C3.99995 2.20002 5.87995 1.57002 9.83995 3.56002L18.3999 7.84002C20.5299 8.90002 21.6999 10.38 21.6999 12C21.6999 13.62 20.5299 15.1 18.4099 16.16L9.84995 20.44C7.90995 21.41 6.46995 21.75 5.40995 21.75ZM5.40995 3.75002C4.86995 3.75002 4.44995 3.88002 4.18995 4.14002C3.45995 4.86002 3.74995 6.73002 4.94995 9.12002L5.81995 10.86C6.13995 11.51 6.13995 12.49 5.81995 13.14L4.94995 14.87C3.74995 17.27 3.45995 19.13 4.18995 19.85C4.90995 20.58 6.77995 20.29 9.17995 19.09L17.7399 14.81C19.3099 14.03 20.1999 13 20.1999 11.99C20.1999 10.98 19.2999 9.95002 17.7299 9.17002L9.16995 4.90002C7.64995 4.14002 6.33995 3.75002 5.40995 3.75002Z" fill="#A9AAB7"/>
<path d="M10.8399 12.75H5.43994C5.02994 12.75 4.68994 12.41 4.68994 12C4.68994 11.59 5.02994 11.25 5.43994 11.25H10.8399C11.2499 11.25 11.5899 11.59 11.5899 12C11.5899 12.41 11.2499 12.75 10.8399 12.75Z" fill="#A9AAB7"/>
</svg>

<svg fill="none" height="24" viewBox="0 0 24 24" width="24" xmlns="http://www.w3.org/2000/svg"><g fill="#a9aab7"><path d="m5.40995 21.75c-1.12 0-1.83-.38-2.28-.83-.88-.88-1.5-2.75.48-6.72l.87-1.73c.11-.23.11-.71 0-.94l-.87-1.72998c-1.99-3.97-1.36-5.85-.48-6.72.87-.88 2.75-1.51 6.71.48l8.55995 4.28c2.13 1.06 3.3 2.53998 3.3 4.15998s-1.17 3.1-3.29 4.16l-8.55995 4.28c-1.94.97-3.38 1.31-4.44 1.31zm0-17.99998c-.54 0-.96.13-1.22.39-.73.72-.44 2.59.76 4.98l.87 1.73998c.32.65.32 1.63 0 2.28l-.87 1.73c-1.2 2.4-1.49 4.26-.76 4.98.72.73 2.59.44 4.99-.76l8.55995-4.28c1.57-.78 2.46-1.81 2.46-2.82s-.9-2.03998-2.47-2.81998l-8.55995-4.27c-1.52-.76-2.83-1.15-3.76-1.15z"/><path d="m10.8399 12.75h-5.39996c-.41 0-.75-.34-.75-.75s.34-.75.75-.75h5.39996c.41 0 .75.34.75.75s-.34.75-.75.75z"/></g></svg>
